X:191
T:Tiddy High O!
M:6/8
L:1/8
Q:1/4=3D115
K:G
G|\
BAG GFG|AGF D3|AAA A2B|A3 zD2|
B,DD GGA|B/B/BB cB2|BBB c2A|G2F G2||
